X:1
T:Zapopan, 87.87 D
T:Zapopan, 87.87 D
T:H. R. Jeffrey, 1885
T:Public Domain Courtesy of the Cyber Hymnal™
C:H. R. Jeffrey, 1885
Z:Public Domain
Z:Courtesy of the Cyber Hymnal™
%%score ( 1 2 ) 3
L:1/8
Q:1/4=95
M:3/4
K:Eb
V:1 treble 
V:2 treble 
V:3 bass 
V:1
 [EG]>[B,F] | [B,E]3 [EG] [EB]>[EB] | [Ec] [EB]3 [Ge]>[Ge] | [EG]3 [EA] (3(BA)[DF] | %4
 E4 [EG]>[B,F] | [B,E]3 [EG] [GB]>[GB] | [Ac] [GB]3 [Ge]>[Ge] | [EG]3 [EB] (3(BA)[DF] | %8
 E4 [GB]>[GB] | [Ge]3 [Ge] (3(fe)[Ac] | [GB] [EG]3 E>[EG] | [GB]3 [EG] E>[EG] | [DF]4 [EG]>[EB] | %13
 [B,E]3 [EG] [GB]>[GB] | [Ac] [GB]3 [Ge]>[Ge] | [EG]3 [EB] (3(BA)[DF] | E6 |] %17
V:2
 x2 | x6 | x6 | x4 D2 | E4 x2 | x6 | x6 | x4 D2 | E4 x2 | x4 A2 | x4 E3/2 x/ | x4 E3/2 x/ | x6 | %13
 x6 | x6 | x4 D2 | E6 |] %17
V:3
 [E,B,]>[E,A,] | [E,G,]3 [E,B,] [E,G,]>[E,G,] | [E,A,] [E,G,]3 [E,B,]>[E,B,] | %3
 [E,B,]3 [E,G,] (3:2:2[B,,F,]2 [B,,A,] | [E,G,]4 [E,B,]>[E,A,] | [E,G,]3 [E,B,] [E,E]>[E,E] | %6
 [E,E] [E,E]3 [E,B,]>[E,B,] | [E,B,]3 [E,G,] (3:2:2[B,,F,]2 [B,,A,] | [E,G,]4 [E,B,]>[E,B,] | %9
 [E,B,]3 [E,B,] (3:2:2[A,C]2 [A,E] | [E,E] [E,B,]3 [E,G,]>[E,B,] | [E,E]3 [E,B,] [G,B,]>[E,B,] | %12
 [B,,B,]4 [E,B,]>[E,G,] | [E,G,]3 [E,B,] [E,E]>[E,E] | [E,E] [E,E]3 [E,B,]>[E,B,] | %15
 [E,B,]3 [E,G,] (3:2:2[B,,F,]2 [B,,A,] | [E,G,]6 |] %17

